X: 162
T: Miss Elizabeth Mylne's Strathspey
R: strathspey
Q: "Slow"
B: William Shepherd "2nd Collection" 1800 p.16 #2
F: http://imslp.org/wiki/File:PMLP73094-Shepherd_Collections_HMT.pdf
C: William Shepherd (17??-1812)
Z: 2012 John Chambers <jc:trillian.mit.edu>
M: C
L: 1/16
K: Dm
FE |\
D2d2-Td3A F3G {B}A2.G.F | C2c2c2GF E2C2C2FE |\
D2d2-Td3A F3G {B}A2.G.^F |[1 (de).f.d (ef).g.e f2d2-d2 :|[2 e3c {a}g2.f.e f2d2Td2 ||
fe |\
d3aTf3a d3a (ba).gf | (ef).g.a (gf).e.d e2c2- Tc2fe |\
d3aTf3a d3a (ba).gf | (ef).g.a (af).g.e f2d2-d2 ||
fe |\
d3aTf3a d3a (ba).gf | (ef).g.a (gf).e.d e2c2- Tc2ag |\
f3de3^c d3BA2F | (GA).B.G (AG).F.E F2D2D2 |]
